X: 448
T: Xiangni xiangzai xinlitau
L: 1/16
M: 2/4
K: Ab
a2 a c' b2 a b [I:setbarnb 1]| 
c'2 c' f' e'2 c' b | 
a2> e2 f2 e c | 
B8 | 
a2 a c' b2 a b | 
c'2 c' f' e'2 c' b | 
a2> e2 f2 e c | 
e8 |]

@@@ Tune index: 9322
